/* XPM */
static char * box_open_xpm[] = {
"32 32 357 2",
"  	c #4D9262",
". 	c #7AB055",
"+ 	c #AA6D30",
"@ 	c #C9954E",
"# 	c #E0AF5F",
"$ 	c #DBAA5C",
"% 	c #C28C48",
"& 	c #BD956D",
"* 	c #D5B88E",
"= 	c #ECC785",
"- 	c #FBCE74",
"; 	c #FBCF78",
"> 	c #F8D592",
", 	c #E2C79A",
"' 	c #C7A57D",
") 	c #A4683C",
"! 	c #A8692D",
"~ 	c #C89A5F",
"{ 	c #E1C79C",
"] 	c #F8E7BA",
"^ 	c #FFEFC2",
"/ 	c #FFEBBA",
"( 	c #FDDFA0",
"_ 	c #FCD382",
": 	c #FDE0A2",
"< 	c #FFEDBF",
"[ 	c #FCEBBF",
"} 	c #E6CEA4",
"| 	c #CBA97F",
"1 	c #A7682C",
"2 	c #3E734E",
"3 	c #B9803F",
"4 	c #D29F55",
"5 	c #E9BA67",
"6 	c #FACD73",
"7 	c #FBD17C",
"8 	c #FDDD9C",
"9 	c #FEEAB7",
"0 	c #FEE7B1",
"a 	c #FEE4AB",
"b 	c #FEE6B1",
"c 	c #FFEFC1",
"d 	c #FEE9B5",
"e 	c #FDDD9A",
"f 	c #FBD07B",
"g 	c #F9CC73",
"h 	c #E5B664",
"i 	c #CC9850",
"j 	c #AC6F31",
"k 	c #C28B46",
"l 	c #F3C56E",
"m 	c #FBD27E",
"n 	c #FDDE9E",
"o 	c #FEE9B6",
"p 	c #FEE8B4",
"q 	c #FFEDBE",
"r 	c #FFEDBD",
"s 	c #FEE5AD",
"t 	c #FCDA94",
"u 	c #FACD74",
"v 	c #CD9A51",
"w 	c #A7682B",
"x 	c #D3A055",
"y 	c #FBD079",
"z 	c #FDDB97",
"A 	c #FEE5AE",
"B 	c #FEE8B3",
"C 	c #FDDC99",
"D 	c #FBD07A",
"E 	c #F6C56A",
"F 	c #EFBA5D",
"G 	c #C3873A",
"H 	c #FBCD73",
"I 	c #FACC72",
"J 	c #FAD07A",
"K 	c #FFE9AF",
"L 	c #FFEEC0",
"M 	c #FEEAB8",
"N 	c #FDDE9D",
"O 	c #FBD17B",
"P 	c #FCD381",
"Q 	c #FFECBB",
"R 	c #FEE4AA",
"S 	c #FAD07E",
"T 	c #F4C165",
"U 	c #EFB95B",
"V 	c #ECB456",
"W 	c #EAB151",
"X 	c #C18436",
"Y 	c #FACD72",
"Z 	c #FACB71",
"` 	c #F9CA6F",
" .	c #F9CF78",
"..	c #FFE397",
"+.	c #FFE49A",
"@.	c #FFE8AC",
"#.	c #FDE2A7",
"$.	c #FCD589",
"%.	c #FBCE75",
"&.	c #FCD890",
"*.	c #FFEEC1",
"=.	c #FFEDBB",
"-.	c #FFE9AD",
";.	c #FFE59D",
">.	c #F8D07E",
",.	c #ECB556",
"'.	c #EAB152",
").	c #E8AD4E",
"!.	c #C08234",
"~.	c #D29F53",
"{.	c #F9CB70",
"].	c #F8C96E",
"^.	c #F7C86D",
"/.	c #F8CD76",
"(.	c #FFE398",
"_.	c #F5C66E",
":.	c #F9CB71",
"<.	c #FAD27F",
"[.	c #F7CF7C",
"}.	c #EDB657",
"|.	c #EBB253",
"1.	c #E8AE4E",
"2.	c #E6AA4A",
"3.	c #BF8032",
"4.	c #D19D51",
"5.	c #F8C86D",
"6.	c #F7C76B",
"7.	c #F7CB73",
"8.	c #FFE296",
"9.	c #FEE195",
"0.	c #F0BD62",
"a.	c #EEB759",
"b.	c #EEB85A",
"c.	c #F4C166",
"d.	c #F8CA6F",
"e.	c #F7C76C",
"f.	c #F9CF79",
"g.	c #FDDD90",
"h.	c #FFE396",
"i.	c #F6CD7B",
"j.	c #EBB354",
"k.	c #E9AF4F",
"l.	c #E7AB4B",
"m.	c #E4A746",
"n.	c #BE7E2F",
"o.	c #D19B4F",
"p.	c #F6C66A",
"q.	c #F5C468",
"r.	c #F4C266",
"s.	c #F6C871",
"t.	c #FCDC8E",
"u.	c #FBD98A",
"v.	c #FEE094",
"w.	c #FDDF92",
"x.	c #EEB95C",
"y.	c #ECB455",
"z.	c #EAB252",
"A.	c #E9AF50",
"B.	c #E8AE4F",
"C.	c #F5C56A",
"D.	c #F7C86C",
"E.	c #F6C569",
"F.	c #F7CD77",
"G.	c #FCDB8C",
"H.	c #F7CE7B",
"I.	c #F3C56F",
"J.	c #EDB95E",
"K.	c #E9B050",
"L.	c #E7AC4C",
"M.	c #E5A847",
"N.	c #E3A443",
"O.	c #BD7C2D",
"P.	c #D09A4D",
"Q.	c #F5C367",
"R.	c #F2BF63",
"S.	c #F2BF64",
"T.	c #F4C66F",
"U.	c #F6CC79",
"V.	c #FAD788",
"W.	c #EFBC62",
"X.	c #EAB051",
"Y.	c #E6AA49",
"Z.	c #F3C065",
"`.	c #F9CA70",
" +	c #F3C166",
".+	c #F0BC5F",
"++	c #E8AC4C",
"@+	c #E5A948",
"#+	c #E3A543",
"$+	c #E1A23F",
"%+	c #BC7B2B",
"&+	c #CE984B",
"*+	c #F3C064",
"=+	c #F2BE61",
"-+	c #F1BC5F",
";+	c #EFBA5C",
">+	c #ECB557",
",+	c #E8AD4D",
"'+	c #E6AB4A",
")+	c #E5A848",
"!+	c #E4A645",
"~+	c #F8C96D",
"{+	c #F4C367",
"]+	c #F3BF63",
"^+	c #EEB85B",
"/+	c #E6A949",
"(+	c #E4A644",
"_+	c #E1A240",
":+	c #E09F3C",
"<+	c #BB7929",
"[+	c #CD9548",
"}+	c #F1BD60",
"|+	c #F0BB5D",
"1+	c #EDB658",
"2+	c #E7AC4B",
"3+	c #E3A544",
"4+	c #E2A341",
"5+	c #F0BC61",
"6+	c #F7C66B",
"7+	c #F3C063",
"8+	c #F1BD5F",
"9+	c #EDB557",
"0+	c #E09F3D",
"a+	c #DE9C39",
"b+	c #BA7827",
"c+	c #CC9345",
"d+	c #EEB859",
"e+	c #E2A442",
"f+	c #E0A03D",
"g+	c #EFBA5E",
"h+	c #F3C164",
"i+	c #E9AE4F",
"j+	c #E2A342",
"k+	c #E0A03E",
"l+	c #DE9D3A",
"m+	c #DD9A36",
"n+	c #B97625",
"o+	c #CB9142",
"p+	c #E1A13E",
"q+	c #DF9F3C",
"r+	c #EDB85C",
"s+	c #F5C469",
"t+	c #F0BA5D",
"u+	c #EDB758",
"v+	c #E3A442",
"w+	c #DF9D3A",
"x+	c #DD9A37",
"y+	c #DB9834",
"z+	c #B97524",
"A+	c #CA8E3F",
"B+	c #E9AE4E",
"C+	c #EAB357",
"D+	c #E6AB4B",
"E+	c #E3A644",
"F+	c #E1A13F",
"G+	c #DF9E3B",
"H+	c #ECB559",
"I+	c #F2BE62",
"J+	c #DD9B37",
"K+	c #DC9834",
"L+	c #DA9631",
"M+	c #B87423",
"N+	c #C88C3C",
"O+	c #F3CA79",
"P+	c #F5CF7F",
"Q+	c #F0C473",
"R+	c #E4A94D",
"S+	c #DF9E3C",
"T+	c #DE9D39",
"U+	c #DC9935",
"V+	c #EBB356",
"W+	c #F2BF62",
"X+	c #F0BC5E",
"Y+	c #E5AA4B",
"Z+	c #EFC271",
"`+	c #E2A547",
" @	c #DD9B38",
".@	c #DC9835",
"+@	c #DA9632",
"@@	c #D9942F",
"#@	c #B87321",
"$@	c #B0702B",
"%@	c #D89C43",
"&@	c #E5A746",
"*@	c #F2C878",
"=@	c #FADA8D",
"-@	c #F6D183",
";@	c #F0C576",
">@	c #DE9C38",
",@	c #DB9733",
"'@	c #DA9531",
")@	c #E9B053",
"!@	c #E9B155",
"~@	c #F0C370",
"{@	c #F7D486",
"]@	c #ECBD6B",
"^@	c #DB9632",
"/@	c #D99430",
"(@	c #D8922E",
"_@	c #B46F20",
":@	c #71390B",
"<@	c #A36423",
"[@	c #CA8B36",
"}@	c #EFC576",
"|@	c #FEE296",
"1@	c #FDDF93",
"2@	c #FAD98D",
"3@	c #DA9530",
"4@	c #D9932F",
"5@	c #E8AE50",
"6@	c #E9B259",
"7@	c #FCDC8F",
"8@	c #F2CA7C",
"9@	c #D18C2D",
"0@	c #BB7623",
"a@	c #985717",
"b@	c #996735",
"c@	c #D1AC6C",
"d@	c #F5D88E",
"e@	c #F9D98D",
"f@	c #D8932E",
"g@	c #D8922D",
"h@	c #E7AB4D",
"i@	c #EBB353",
"j@	c #E7B057",
"k@	c #F7DA90",
"l@	c #D2A663",
"m@	c #A1601C",
"n@	c #783D0C",
"o@	c #814615",
"p@	c #BE955B",
"q@	c #E2BD76",
"r@	c #D9932E",
"s@	c #E5A94B",
"t@	c #E2A950",
"u@	c #E0BD7A",
"v@	c #B98F57",
"w@	c #814616",
"x@	c #6C360A",
"y@	c #995818",
"z@	c #BF7A24",
"A@	c #D58F2C",
"B@	c #E4A748",
"C@	c #E4A847",
"D@	c #D1923A",
"E@	c #B4752A",
"F@	c #894B14",
"G@	c #884912",
"H@	c #CE882A",
"I@	c #E3A545",
"J@	c #DA9E45",
"K@	c #BE8033",
"L@	c #93561B",
"M@	c #69340A",
"N@	c #783D0D",
"O@	c #95561A",
"P@	c #72390B",
"                                                                ",
"                                                                ",
"                                                                ",
"                  .       + @ # $ %               .             ",
"                    & * = - - - - ; > , ' )         .           ",
"            ! ~ { ] ^ ^ ^ / ( _ : < ^ ^ ^ [ } | 1   2           ",
"      3 4 5 6 - 7 8 9 ^ ^ ^ ^ ^ 0 a b c ^ d e f g h i j         ",
"  k l - - - - - - m n o p q ^ ^ ^ ^ r s t - - - - - - u 5 v w   ",
"  x - - - - y z 0 c ^ ^ ^ d A B ^ ^ ^ ^ ^ d C D - - - 6 E F G   ",
"  x - H I J K L ^ ^ ^ ^ ^ M N O P : Q ^ ^ ^ ^ L R S T U V W X   ",
"  x Y Z `  ...+.@.r q #.$.- - - - - %.&.s *.=.-.;.>.U ,.'.).!.  ",
"  ~.{.].^./.......(._.^.- - - - - - - H :.<.......[.}.|.1.2.3.  ",
"  4.5.6.E 7.8.9.....0.a.b.c.I - - - I d.e.f...g.h.i.j.k.l.m.n.  ",
"  o.p.q.r.s.t.u.v.w.x.y.z.A.B.C.- I ` D.E.F.G.H.I.J.K.L.M.N.O.  ",
"  P.Q.T R.S.T.U.V.W.V X.1.L.Y.Z.Y `.5.E r. +.+b.y.X.++@+#+$+%+  ",
"  &+*+=+-+;+b.}.>+'.k.,+'+)+!+R.{.~+p.{+]+-+^+,.'.,+/+(+_+:+<+  ",
"  [+}+|+U 1+V |.K.1.2+/+m.3+4+5+].6+Q.7+8+U 9+z.1.Y.!+4+0+a+b+  ",
"  c+;+d+9+j.'.k.L.2.M.!+e+_+f+g+6.q.h+}+;+1+|.i+'+m.j+k+l+m+n+  ",
"  o+1+y.|.K.,+l.@+m.#+4+p+q+l+r+s+T =+t+u+j.k.l.M.v+p+w+x+y+z+  ",
"  A+j.W B+C+D+M.E+e+F+0+G+a+x+H+r.I+|+a.y.K.L.M.#+F+G+J+K+L+M+  ",
"  N+A.,+'+O+P+Q+R+F+S+T+J+U+y+V+W+X+b.V X.,+@+Y+Z+`+ @.@+@@@#@  ",
"  $@%@Y.&@*@..=@-@;@>@m+K+,@'@)@-+U ,.'.,+!@~@{@..]@U+^@/@(@_@. ",
"    :@<@[@}@..|@1@2@U+,@+@3@4@5@U }.|.1.2.6@7@|@..8@,@9@0@a@    ",
"          b@c@d@..e@^@'@@@f@g@h@1+i@k.l.m.j@....k@l@m@n@        ",
"              o@p@q@/@r@g@g@g@s@j.A.2+M.N.t@u@v@w@              ",
"                  x@y@z@A@g@g@B@X.L.C@D@E@F@                    ",
"                        G@_@H@I@J@K@L@M@                        ",
"        .                   N@O@P@                              ",
"        .   .                                 .                 ",
"                                          .   .                 ",
"                                                                ",
"                                                                "};
