/* XPM */
static char * kiwi_fruit_xpm[] = {
"32 32 11 1",
" 	c #4D9262",
".	c #7AB055",
"+	c #265C42",
"@	c #193C3E",
"#	c #3E734E",
"$	c #B08A63",
"%	c #9E7C59",
"&	c #3E8948",
"*	c #C2986D",
"=	c #FEE761",
"-	c #63C74D",
"                                ",
"                                ",
"                                ",
"         .               .      ",
"          .+++++   .      .     ",
"         +++@@@+++ ..     #     ",
"        +++++++++++             ",
"       +++++++++++++$$$%%       ",
"      +++++++++++++++$$%%       ",
"    . ++++++++++&&+++%$$$       ",
"  . .++++++++++&&&&+++%$$       ",
"     ++++++++++&&&&+++*%$       ",
"     +++++++++++&&++++*%#       ",
"     +++++++++++++++++%%        ",
"     +++++++++++++++++*%%       ",
"      +++++++++++++++%%*$#      ",
"      ++++++++===========#      ",
"       +++++==-----------==     ",
"        +++=---------------=    ",
"        %++=------===------=#   ",
"        $%*=---------------=    ",
"       %*$%&==-----------==&   .",
"       #$$$&&&===========&&& .  ",
"       %%$*&&&&&&&&&&&&&&&&&    ",
"        %#%&&&&&&&&&&&&&&&&     ",
"            &&&&&&&&&&&&&&&     ",
"             &&&&&&&&&&&&&      ",
"    .         &&&&&&&&&&&       ",
"    . .          &&&&& .        ",
"                     . .        ",
"                                ",
"                                "};
