/* XPM */
static char * lawn_xpm[] = {
"32 32 7 1",
" 	c #4D9262",
".	c #3E734E",
"+	c #7AB055",
"@	c #9E7C59",
"#	c #B08A63",
"$	c #C2986D",
"%	c #FFFFFF",
"                                ",
"                                ",
"                                ",
"         +               +      ",
"          +        +      +     ",
"          .        ++     .     ",
"         .     ..               ",
"       .###@@@@##@ .###@@       ",
"       @$$$##@#$$@@@@##@@       ",
"    +  @$#@@##@@@$@$$@###       ",
"  + +   $#@##@#$@@#$$#@##       ",
"        @#@$$##$#$##@$$@#       ",
"       @#$@####@#$$##$$@.       ",
"        @#@##$$@@#@$##@@        ",
"       @$##$###@$##$$@$@@       ",
"       @$##@@@@$$$@##@@$#.      ",
"        #@##$##@$@@@$$@$#.      ",
"        @#@#$###@#$###@#@       ",
"        .#$#####@#$##@#@@       ",
"        @$$###$$@###$###@   .   ",
"        #@$@####@$##$#@#@       ",
"       @$#@$$$@###@@@@@$#      +",
"       .###@$##@###$###$#.   +  ",
"       @@#$#@.@#$$@#@$$$#       ",
"        @.@     @@ @  @@.       ",
"                                ",
"                                ",
"    +                           ",
"    + +                +        ",
"                     + +        ",
"                                ",
"                                "};
