/* XPM */
static char * super_kiwi_xpm[] = {
"32 32 31 1",
" 	c #4D9262",
".	c #7AB055",
"+	c #3E734E",
"@	c #B08A63",
"#	c #9E7C59",
"$	c #C2986D",
"%	c #2E2B27",
"&	c #C5A49B",
"*	c #CE9E9A",
"=	c #C7A59A",
"-	c #CFACA0",
";	c #CD9B97",
">	c #AE9982",
",	c #C69591",
"'	c #D3A099",
")	c #D1CCC5",
"!	c #5D5852",
"~	c #BDB4A8",
"{	c #A0C97A",
"]	c #8FB66B",
"^	c #C8BEB3",
"/	c #D95763",
"(	c #759359",
"_	c #ECD99C",
":	c #C3B4A3",
"<	c #4D4840",
"[	c #B6A48F",
"}	c #BEAD9B",
"|	c #BCAA98",
"1	c #D8CEC3",
"2	c #423D38",
"                                ",
"                                ",
"                                ",
"         .               .      ",
"          .        .      .     ",
"          +        ..     +     ",
"         +     ++               ",
"       +@@@####@@# +@@@##       ",
"       #$$$@@#@$%%%##@@%%%      ",
"    .  %$@##@@#%&*=%$#%-;-%     ",
"  . . %>%@#@@#@%,%'%$@%;%-%     ",
"      %)%@#$$@@%%!%!%%!%!%%     ",
"      %~%$#@@@@%!!!!!!!!!!%     ",
"     %))%@#@@$%!!!!!!!!!!!%     ",
"    %!!%$@@$@@%!!!!!{!!!!{!%    ",
"    %!%#$@@###%!!!!!]^^^^]!%    ",
"    %!% @#@@$@%%%%!!^^^/^^!%    ",
"    %!!%#@#@$@@%!!!!!^^^^!!%    ",
"    %!!!%%%%%%%(%%%!!!!!!!%     ",
"    %!!!!!!!!!!((%!!!!!!!%  +   ",
"     %!!!!!!!!!!((%%%%%%%       ",
"     %!!!!!!!!!!!(((((((@      .",
"      %%!!!!!!!!!!!!_!!%@+   .  ",
"       %!!!!!!!!!!!!!!!%@       ",
"       %!!!!!!!!!!!!!!!%+       ",
"       %!!!!!!!!!!!!!!%         ",
"       %:!!<:[}<!}<!}|%         ",
"    .  %11!211>2112111%         ",
"    . .%11%%11%%11%%11%.        ",
"        %%% %%% %%% %% .        ",
"                                ",
"                                "};
