/* XPM */
static char * box_open_tile1_xpm[] = {
"32 32 345 2",
"  	c #602C35",
". 	c #F7DBC6",
"+ 	c #B36A15",
"@ 	c #B46D13",
"# 	c #92540E",
"$ 	c #AC6515",
"% 	c #B97014",
"& 	c #C97F15",
"* 	c #D08316",
"= 	c #C17A12",
"- 	c #855503",
"; 	c #8A5707",
"> 	c #985B10",
", 	c #A15C16",
"' 	c #AA6618",
") 	c #AF6B15",
"! 	c #BA7613",
"~ 	c #C07A12",
"{ 	c #C67D13",
"] 	c #CA8014",
"^ 	c #CD8115",
"/ 	c #BE7812",
"( 	c #885704",
"_ 	c #8E5B06",
": 	c #976008",
"< 	c #A76813",
"[ 	c #A96618",
"} 	c #AD691C",
"| 	c #AA6917",
"1 	c #AC6E13",
"2 	c #AC6D0D",
"3 	c #B2710F",
"4 	c #B87510",
"5 	c #BE7811",
"6 	c #C27B13",
"7 	c #C87F14",
"8 	c #BA7611",
"9 	c #895704",
"0 	c #915C06",
"a 	c #996108",
"b 	c #A3670B",
"c 	c #AD6E0D",
"d 	c #B97615",
"e 	c #B8721A",
"f 	c #AE681C",
"g 	c #AA631C",
"h 	c #BE7A26",
"i 	c #B2761E",
"j 	c #986108",
"k 	c #9D6409",
"l 	c #A3680B",
"m 	c #A96B0C",
"n 	c #AF6F0E",
"o 	c #B5730F",
"p 	c #BA7610",
"q 	c #C37C13",
"r 	c #B67310",
"s 	c #8A5805",
"t 	c #925D06",
"u 	c #9B6209",
"v 	c #A5690B",
"w 	c #C37B13",
"x 	c #CB8117",
"y 	c #C97F1D",
"z 	c #B97320",
"A 	c #984F13",
"B 	c #945015",
"C 	c #A9651D",
"D 	c #DB9835",
"E 	c #DF9E3B",
"F 	c #D19538",
"G 	c #B77E28",
"H 	c #A1670C",
"I 	c #A6690B",
"J 	c #AB6D0D",
"K 	c #B1700E",
"L 	c #B97510",
"M 	c #BC7711",
"N 	c #BD7811",
"O 	c #865503",
"P 	c #B06F0E",
"Q 	c #C47C14",
"R 	c #D7973B",
"S 	c #EBB45A",
"T 	c #F8C970",
"U 	c #BE833E",
"V 	c #9E5717",
"W 	c #9A5013",
"X 	c #A35F1A",
"Y 	c #D69130",
"Z 	c #DD9A37",
"` 	c #E09F3C",
" .	c #E3A543",
"..	c #E6AB4A",
"+.	c #E2A94C",
"@.	c #C9913B",
"#.	c #AD7119",
"$.	c #B0700E",
"%.	c #B3720F",
"&.	c #B6730F",
"*.	c #B77410",
"=.	c #8A5704",
"-.	c #9A6108",
";.	c #BC7F28",
">.	c #D9A047",
",.	c #EFBB5F",
"'.	c #F6C56A",
").	c #F8C96E",
"!.	c #FACD72",
"~.	c #F0C16C",
"{.	c #CF8A2B",
"].	c #DB9732",
"^.	c #DD9B38",
"/.	c #E0A03E",
"(.	c #E4A644",
"_.	c #E7AC4B",
":.	c #EBB252",
"<.	c #EEB85A",
"[.	c #EFBB5E",
"}.	c #DAA751",
"|.	c #BB822F",
"1.	c #A76A0C",
"2.	c #885604",
"3.	c #9E6816",
"4.	c #C28830",
"5.	c #DEA345",
"6.	c #EBB253",
"7.	c #EEB759",
"8.	c #F1BC5F",
"9.	c #F4C165",
"0.	c #F6C66B",
"a.	c #F9CA6F",
"b.	c #FACD73",
"c.	c #D9A85B",
"d.	c #B56E1F",
"e.	c #D7912E",
"f.	c #DB9733",
"g.	c #DE9C39",
"h.	c #E1A13F",
"i.	c #E4A745",
"j.	c #E8AD4D",
"k.	c #EBB354",
"l.	c #EFB95B",
"m.	c #F2BF62",
"n.	c #F5C468",
"o.	c #F8C86D",
"p.	c #E9BA63",
"q.	c #C99444",
"r.	c #AB6D10",
"s.	c #A96D11",
"t.	c #B1771F",
"u.	c #CE8E2F",
"v.	c #DF9D3A",
"w.	c #E2A240",
"x.	c #E5A746",
"y.	c #EBB353",
"z.	c #F1BD60",
"A.	c #F4C266",
"B.	c #F7C76B",
"C.	c #F9CB70",
"D.	c #FACC73",
"E.	c #BE8844",
"F.	c #874B13",
"G.	c #B87726",
"H.	c #D79536",
"I.	c #E1A240",
"J.	c #E5A847",
"K.	c #E8AE4E",
"L.	c #ECB455",
"M.	c #EFBA5C",
"N.	c #F3BF63",
"O.	c #F6C569",
"P.	c #FBCE74",
"Q.	c #E7B761",
"R.	c #D7922F",
"S.	c #D9932E",
"T.	c #DA9632",
"U.	c #DD9A36",
"V.	c #E2A341",
"W.	c #ECB355",
"X.	c #F2BE61",
"Y.	c #F5C367",
"Z.	c #E5B461",
"`.	c #BC8845",
" +	c #B17C3A",
".+	c #D8A450",
"++	c #DDA449",
"@+	c #E9AF4F",
"#+	c #ECB556",
"$+	c #F0BB5D",
"%+	c #F3C064",
"&+	c #FBCD73",
"*+	c #EFC16A",
"=+	c #D9A44E",
"-+	c #D7A14D",
";+	c #D8922D",
">+	c #D9932F",
",+	c #E3A442",
"'+	c #E6A949",
")+	c #ECB456",
"!+	c #E8B256",
"~+	c #DFA64C",
"{+	c #975E26",
"]+	c #C18B42",
"^+	c #E5B159",
"/+	c #D5A14E",
"(+	c #DDA750",
"_+	c #EEBA5D",
":+	c #F7C66B",
"<+	c #F9CA70",
"[+	c #F4C66E",
"}+	c #C48E40",
"|+	c #E1A74C",
"1+	c #E0B261",
"2+	c #D59539",
"3+	c #D9942F",
"4+	c #E0A03D",
"5+	c #DEA142",
"6+	c #D99F44",
"7+	c #DB9E41",
"8+	c #DF9F3D",
"9+	c #D49234",
"0+	c #C0893F",
"a+	c #F0BA5D",
"b+	c #E1AA4F",
"c+	c #CF9A46",
"d+	c #D8A552",
"e+	c #F0BF66",
"f+	c #F7C86E",
"g+	c #C99546",
"h+	c #C08736",
"i+	c #E5A94A",
"j+	c #EABB66",
"k+	c #CC9A4D",
"l+	c #D79432",
"m+	c #D0943B",
"n+	c #D19842",
"o+	c #DBA045",
"p+	c #E1A13E",
"q+	c #DE9D39",
"r+	c #D28F31",
"s+	c #BF863C",
"t+	c #EDB658",
"u+	c #ECB354",
"v+	c #EAB151",
"w+	c #E7AB4B",
"x+	c #DEA245",
"y+	c #CA913C",
"z+	c #C48E3F",
"A+	c #BB8234",
"B+	c #CA8D35",
"C+	c #E3A646",
"D+	c #F3C368",
"E+	c #C99A4F",
"F+	c #CC9543",
"G+	c #CA9342",
"H+	c #D29D49",
"I+	c #E1A84C",
"J+	c #E6AA4A",
"K+	c #DC9936",
"L+	c #D18D2E",
"M+	c #BD8338",
"N+	c #E9B154",
"O+	c #ECBA64",
"P+	c #E1A23F",
"Q+	c #DA9B3B",
"R+	c #C88B34",
"S+	c #D39335",
"T+	c #E1A243",
"U+	c #D4A252",
"V+	c #D8A550",
"W+	c #E8B054",
"X+	c #E9B050",
"Y+	c #E4A645",
"Z+	c #D08B2C",
"`+	c #B57931",
" @	c #E7AC4D",
".@	c #E9B157",
"+@	c #FDDF92",
"@@	c #F6D284",
"#@	c #F0C574",
"$@	c #E0A040",
"%@	c #DE9C38",
"&@	c #DB9833",
"*@	c #DF9F3F",
"=@	c #F2BE62",
"-@	c #EDB557",
";@	c #EBB75F",
">@	c #F2C878",
",@	c #F5CE7F",
"'@	c #DA9530",
")@	c #CF892A",
"!@	c #90561D",
"~@	c #C28434",
"{@	c #E1A851",
"]@	c #FFE397",
"^@	c #FCDE91",
"/@	c #FEE296",
"(@	c #E9B764",
"_@	c #DC9834",
":@	c #DB9632",
"<@	c #DE9D3C",
"[@	c #EAB252",
"}@	c #E6AB4C",
"|@	c #FBDC8E",
"1@	c #FEE194",
"2@	c #FEE295",
"3@	c #DC9935",
"4@	c #D5912F",
"5@	c #C07C25",
"6@	c #A0601A",
"7@	c #7C481C",
"8@	c #C39F64",
"9@	c #EDCD86",
"0@	c #E9B765",
"a@	c #DA9531",
"b@	c #D8932E",
"c@	c #DD9B3A",
"d@	c #E5A948",
"e@	c #E4A848",
"f@	c #FFE398",
"g@	c #FBDF94",
"h@	c #E1BF7B",
"i@	c #A86920",
"j@	c #783E0D",
"k@	c #AA814C",
"l@	c #CB934A",
"m@	c #DC9A38",
"n@	c #E9AE4F",
"o@	c #E6AA49",
"p@	c #E3A443",
"q@	c #D1923A",
"r@	c #C29E63",
"s@	c #875629",
"t@	c #864A12",
"u@	c #B67221",
"v@	c #D18B2A",
"w@	c #DC9937",
"x@	c #DA9E43",
"y@	c #BC8032",
"z@	c #8E541A",
"A@	c #71390C",
"B@	c #A86A22",
"C@	c #9B6224",
"D@	c #633109",
"                                                                ",
"  . . . . . . . . . . . . . . . . . . . . . . . . . . . . . .   ",
"  . . . . . . . . . . . . . . . . . . . . . . . . . . . . . .   ",
"  . . . . . . . . . . . . . . . . . . . . . . . . . . . . . .   ",
"  . . . . . . . . . . . . . . . . . . . . . . . . . . . . . .   ",
"  . . . . . . . . . . . . . . + @ # . . . . . . . . . . . . .   ",
"  . . . . . . . . . . . $ % & * = - ; > , . . . . . . . . . .   ",
"  . . . . . . . . ' ) ! ~ { ] ^ / - ( _ : < [ . . . . . . . .   ",
"  . . . . . } | 1 2 3 4 5 6 { 7 8 - 9 0 a b c d e f . . . . .   ",
"  . . g h i j k l m n o p 5 = q r - s t u v n p w x y z . . .   ",
"  A B C D E F G H I J K o L M N K O s t u v P p Q R S T U V W   ",
"  . X Y Z `  ...+.@.#.2 $.%.&.*.2 - =.0 -.b ;.>.,.'.).!.~.. .   ",
"  . {.].^./.(._.:.<.[.}.|.c n K 1.- 2.3.4.5.6.7.8.9.0.a.b.c..   ",
"  d.e.f.g.h.i.j.k.l.m.n.o.p.q.r.s.t.u.v.w.x.j.y.<.z.A.B.C.D.E.  ",
"  . F.G.H.I.J.K.L.M.N.O.).!.P.Q.R.S.T.U.E V.J.K.W.l.X.Y.0.Z.`.  ",
"  . . .  +.+++@+#+$+%+'.a.&+*+=+-+;+>+].Z ` ,+'+@+)+!+~+{+. .   ",
"  . . . ]+X.^+/+(+_+9.:+<+[+}+|+1+2+;+3+f.^.4+5+6+7+8+9+. . .   ",
"  . . . 0+a+<.#+b+c+d+e+f+g+h+i+j+k+R.;+l+m+n+o+ .p+q+r+. . .   ",
"  . . . s+t+u+v+K.w+x+y+z+A+B+C+D+E+F+G+H+I+J+(.h.v.K+L+. . .   ",
"  . . . M+6.@+N+O+i+,+P+Q+R+S+T+A.U+V+W+X+w+Y+V.E Z f.Z+. . .   ",
"  . . . `+ @...@+@@@#@$@%@K+&@*@=@M.-@v+j.;@>@,@g.f.'@)@. . .   ",
"  . . . . !@~@{@]@^@/@(@_@:@'@<@$+t+[@j.}@|@1@2@3@4@5@6@. . .   ",
"  . . . . . . 7@8@9@]@0@a@3+b@c@7.6.K.d@e@f@g@h@i@j@. . . . .   ",
"  . . . . . . . . . k@l@e.;+;+m@k.n@o@p@q@r@s@. . . . . . . .   ",
"  . . . . . . . . . . . t@u@v@w@X+x@y@z@. . . . . . . . . . .   ",
"  . . . . . . . . . . . . . A@B@C@D@. . . . . . . . . . . . .   ",
"  . . . . . . . . . . . . . . . . . . . . . . . . . . . . . .   ",
"  . . . . . . . . . . . . . . . . . . . . . . . . . . . . . .   ",
"  . . . . . . . . . . . . . . . . . . . . . . . . . . . . . .   ",
"  . . . . . . . . . . . . . . . . . . . . . . . . . . . . . .   ",
"  . . . . . . . . . . . . . . . . . . . . . . . . . . . . . .   ",
"                                                                "};
