/* XPM */
static char * box_closed_tile1_xpm[] = {
"32 32 356 2",
"  	c #602C35",
". 	c #F7DBC6",
"+ 	c #AA6D30",
"@ 	c #C9954E",
"# 	c #E0AF5F",
"$ 	c #DBAA5C",
"% 	c #C28C48",
"& 	c #BD956D",
"* 	c #D5B88E",
"= 	c #ECC785",
"- 	c #FBCE74",
"; 	c #FBCF78",
"> 	c #F8D592",
", 	c #E2C79A",
"' 	c #C7A57D",
") 	c #A4683C",
"! 	c #A8692D",
"~ 	c #C89A5F",
"{ 	c #E1C79C",
"] 	c #F8E7BA",
"^ 	c #FFEFC2",
"/ 	c #FFEBBA",
"( 	c #FDDFA0",
"_ 	c #FCD382",
": 	c #FDE0A2",
"< 	c #FFEDBF",
"[ 	c #FCEBBF",
"} 	c #E6CEA4",
"| 	c #CBA97F",
"1 	c #A7682C",
"2 	c #B9803F",
"3 	c #D29F55",
"4 	c #E9BA67",
"5 	c #FACD73",
"6 	c #FBD17C",
"7 	c #FDDD9C",
"8 	c #FEEAB7",
"9 	c #FEE7B1",
"0 	c #FEE4AB",
"a 	c #FEE6B1",
"b 	c #FFEFC1",
"c 	c #FEE9B5",
"d 	c #FDDD9A",
"e 	c #FBD07B",
"f 	c #F9CC73",
"g 	c #E5B664",
"h 	c #CC9850",
"i 	c #AC6F31",
"j 	c #C28B46",
"k 	c #F3C56E",
"l 	c #FBD27E",
"m 	c #FDDE9E",
"n 	c #FEE9B6",
"o 	c #FEE8B4",
"p 	c #FFEDBE",
"q 	c #FFEDBD",
"r 	c #FEE5AD",
"s 	c #FCDA94",
"t 	c #FACD74",
"u 	c #CD9A51",
"v 	c #A7682B",
"w 	c #D3A055",
"x 	c #FBD079",
"y 	c #FDDB97",
"z 	c #FEE5AE",
"A 	c #FEE8B3",
"B 	c #FDDC99",
"C 	c #FBD07A",
"D 	c #F6C56A",
"E 	c #EFBA5D",
"F 	c #C3873A",
"G 	c #FBCD73",
"H 	c #FACC72",
"I 	c #FAD07A",
"J 	c #FFE9AF",
"K 	c #FFEEC0",
"L 	c #FEEAB8",
"M 	c #FDDE9D",
"N 	c #FBD17B",
"O 	c #FCD381",
"P 	c #FFECBB",
"Q 	c #FEE4AA",
"R 	c #FAD07E",
"S 	c #F4C165",
"T 	c #EFB95B",
"U 	c #ECB456",
"V 	c #EAB151",
"W 	c #C18436",
"X 	c #FACD72",
"Y 	c #FACB71",
"Z 	c #F9CA6F",
"` 	c #F9CF78",
" .	c #FFE397",
"..	c #FFE49A",
"+.	c #FFE8AC",
"@.	c #FDE2A7",
"#.	c #FCD589",
"$.	c #FBCE75",
"%.	c #FCD890",
"&.	c #FFEEC1",
"*.	c #FFEDBB",
"=.	c #FFE9AD",
"-.	c #FFE59D",
";.	c #F8D07E",
">.	c #ECB556",
",.	c #EAB152",
"'.	c #E8AD4E",
").	c #C08234",
"!.	c #D29F53",
"~.	c #F9CB70",
"{.	c #F8C96E",
"].	c #F7C86D",
"^.	c #F8CD76",
"/.	c #FFE398",
"(.	c #F5C66E",
"_.	c #F9CB71",
":.	c #FAD27F",
"<.	c #F7CF7C",
"[.	c #EDB657",
"}.	c #EBB253",
"|.	c #E8AE4E",
"1.	c #E6AA4A",
"2.	c #BF8032",
"3.	c #D19D51",
"4.	c #F8C86D",
"5.	c #F7C76B",
"6.	c #F7CB73",
"7.	c #FFE296",
"8.	c #FEE195",
"9.	c #F0BD62",
"0.	c #EEB759",
"a.	c #EEB85A",
"b.	c #F4C166",
"c.	c #F8CA6F",
"d.	c #F7C76C",
"e.	c #F9CF79",
"f.	c #FDDD90",
"g.	c #FFE396",
"h.	c #F6CD7B",
"i.	c #EBB354",
"j.	c #E9AF4F",
"k.	c #E7AB4B",
"l.	c #E4A746",
"m.	c #BE7E2F",
"n.	c #D19B4F",
"o.	c #F6C66A",
"p.	c #F5C468",
"q.	c #F4C266",
"r.	c #F6C871",
"s.	c #FCDC8E",
"t.	c #FBD98A",
"u.	c #FEE094",
"v.	c #FDDF92",
"w.	c #EEB95C",
"x.	c #ECB455",
"y.	c #EAB252",
"z.	c #E9AF50",
"A.	c #E8AE4F",
"B.	c #F5C56A",
"C.	c #F7C86C",
"D.	c #F6C569",
"E.	c #F7CD77",
"F.	c #FCDB8C",
"G.	c #F7CE7B",
"H.	c #F3C56F",
"I.	c #EDB95E",
"J.	c #E9B050",
"K.	c #E7AC4C",
"L.	c #E5A847",
"M.	c #E3A443",
"N.	c #BD7C2D",
"O.	c #D09A4D",
"P.	c #F5C367",
"Q.	c #F2BF63",
"R.	c #F2BF64",
"S.	c #F4C66F",
"T.	c #F6CC79",
"U.	c #FAD788",
"V.	c #EFBC62",
"W.	c #EAB051",
"X.	c #E6AA49",
"Y.	c #F3C065",
"Z.	c #F9CA70",
"`.	c #F3C166",
" +	c #F0BC5F",
".+	c #E8AC4C",
"++	c #E5A948",
"@+	c #E3A543",
"#+	c #E1A23F",
"$+	c #BC7B2B",
"%+	c #CE984B",
"&+	c #F3C064",
"*+	c #F2BE61",
"=+	c #F1BC5F",
"-+	c #EFBA5C",
";+	c #ECB557",
">+	c #E8AD4D",
",+	c #E6AB4A",
"'+	c #E5A848",
")+	c #E4A645",
"!+	c #F8C96D",
"~+	c #F4C367",
"{+	c #F3BF63",
"]+	c #EEB85B",
"^+	c #E6A949",
"/+	c #E4A644",
"(+	c #E1A240",
"_+	c #E09F3C",
":+	c #BB7929",
"<+	c #CD9548",
"[+	c #F1BD60",
"}+	c #F0BB5D",
"|+	c #EDB658",
"1+	c #E7AC4B",
"2+	c #E3A544",
"3+	c #E2A341",
"4+	c #F0BC61",
"5+	c #F7C66B",
"6+	c #F3C063",
"7+	c #F1BD5F",
"8+	c #EDB557",
"9+	c #E09F3D",
"0+	c #DE9C39",
"a+	c #BA7827",
"b+	c #CC9345",
"c+	c #EEB859",
"d+	c #E2A442",
"e+	c #E0A03D",
"f+	c #EFBA5E",
"g+	c #F3C164",
"h+	c #E9AE4F",
"i+	c #E2A342",
"j+	c #E0A03E",
"k+	c #DE9D3A",
"l+	c #DD9A36",
"m+	c #B97625",
"n+	c #CB9142",
"o+	c #E1A13E",
"p+	c #DF9F3C",
"q+	c #EDB85C",
"r+	c #F5C469",
"s+	c #F0BA5D",
"t+	c #EDB758",
"u+	c #E3A442",
"v+	c #DF9D3A",
"w+	c #DD9A37",
"x+	c #DB9834",
"y+	c #B97524",
"z+	c #CA8E3F",
"A+	c #E9AE4E",
"B+	c #EAB357",
"C+	c #E6AB4B",
"D+	c #E3A644",
"E+	c #E1A13F",
"F+	c #DF9E3B",
"G+	c #ECB559",
"H+	c #F2BE62",
"I+	c #DD9B37",
"J+	c #DC9834",
"K+	c #DA9631",
"L+	c #B87423",
"M+	c #C88C3C",
"N+	c #F3CA79",
"O+	c #F5CF7F",
"P+	c #F0C473",
"Q+	c #E4A94D",
"R+	c #DF9E3C",
"S+	c #DE9D39",
"T+	c #DC9935",
"U+	c #EBB356",
"V+	c #F2BF62",
"W+	c #F0BC5E",
"X+	c #E5AA4B",
"Y+	c #EFC271",
"Z+	c #E2A547",
"`+	c #DD9B38",
" @	c #DC9835",
".@	c #DA9632",
"+@	c #D9942F",
"@@	c #B87321",
"#@	c #B0702B",
"$@	c #D89C43",
"%@	c #E5A746",
"&@	c #F2C878",
"*@	c #FADA8D",
"=@	c #F6D183",
"-@	c #F0C576",
";@	c #DE9C38",
">@	c #DB9733",
",@	c #DA9531",
"'@	c #E9B053",
")@	c #E9B155",
"!@	c #F0C370",
"~@	c #F7D486",
"{@	c #ECBD6B",
"]@	c #DB9632",
"^@	c #D99430",
"/@	c #D8922E",
"(@	c #B46F20",
"_@	c #71390B",
":@	c #A36423",
"<@	c #CA8B36",
"[@	c #EFC576",
"}@	c #FEE296",
"|@	c #FDDF93",
"1@	c #FAD98D",
"2@	c #DA9530",
"3@	c #D9932F",
"4@	c #E8AE50",
"5@	c #E9B259",
"6@	c #FCDC8F",
"7@	c #F2CA7C",
"8@	c #D18C2D",
"9@	c #BB7623",
"0@	c #985717",
"a@	c #996735",
"b@	c #D1AC6C",
"c@	c #F5D88E",
"d@	c #F9D98D",
"e@	c #D8932E",
"f@	c #D8922D",
"g@	c #E7AB4D",
"h@	c #EBB353",
"i@	c #E7B057",
"j@	c #F7DA90",
"k@	c #D2A663",
"l@	c #A1601C",
"m@	c #783D0C",
"n@	c #814615",
"o@	c #BE955B",
"p@	c #E2BD76",
"q@	c #D9932E",
"r@	c #E5A94B",
"s@	c #E2A950",
"t@	c #E0BD7A",
"u@	c #B98F57",
"v@	c #814616",
"w@	c #6C360A",
"x@	c #995818",
"y@	c #BF7A24",
"z@	c #D58F2C",
"A@	c #E4A748",
"B@	c #E4A847",
"C@	c #D1923A",
"D@	c #B4752A",
"E@	c #894B14",
"F@	c #884912",
"G@	c #CE882A",
"H@	c #E3A545",
"I@	c #DA9E45",
"J@	c #BE8033",
"K@	c #93561B",
"L@	c #69340A",
"M@	c #783D0D",
"N@	c #95561A",
"O@	c #72390B",
"                                                                ",
"  . . . . . . . . . . . . . . . . . . . . . . . . . . . . . .   ",
"  . . . . . . . . . . . . . . . . . . . . . . . . . . . . . .   ",
"  . . . . . . . . . . . . + @ # $ % . . . . . . . . . . . . .   ",
"  . . . . . . . . . & * = - - - - ; > , ' ) . . . . . . . . .   ",
"  . . . . . ! ~ { ] ^ ^ ^ / ( _ : < ^ ^ ^ [ } | 1 . . . . . .   ",
"  . . 2 3 4 5 - 6 7 8 ^ ^ ^ ^ ^ 9 0 a b ^ c d e f g h i . . .   ",
"  j k - - - - - - l m n o p ^ ^ ^ ^ q r s - - - - - - t 4 u v   ",
"  w - - - - x y 9 b ^ ^ ^ c z A ^ ^ ^ ^ ^ c B C - - - 5 D E F   ",
"  w - G H I J K ^ ^ ^ ^ ^ L M N O : P ^ ^ ^ ^ K Q R S T U V W   ",
"  w X Y Z `  ...+.q p @.#.- - - - - $.%.r &.*.=.-.;.T >.,.'.).  ",
"  !.~.{.].^. . . ./.(.].- - - - - - - G _.:. . . .<.[.}.|.1.2.  ",
"  3.4.5.D 6.7.8. . .9.0.a.b.H - - - H c.d.e. .f.g.h.i.j.k.l.m.  ",
"  n.o.p.q.r.s.t.u.v.w.x.y.z.A.B.- H Z C.D.E.F.G.H.I.J.K.L.M.N.  ",
"  O.P.S Q.R.S.T.U.V.U W.|.K.X.Y.X Z.4.D q.`. +a.x.W..+++@+#+$+  ",
"  %+&+*+=+-+a.[.;+,.j.>+,+'+)+Q.~.!+o.~+{+=+]+>.,.>+^+/+(+_+:+  ",
"  <+[+}+T |+U }.J.|.1+^+l.2+3+4+{.5+P.6+7+T 8+y.|.X.)+3+9+0+a+  ",
"  b+-+c+8+i.,.j.K.1.L.)+d+(+e+f+5.p.g+[+-+|+}.h+,+l.i+j+k+l+m+  ",
"  n+|+x.}.J.>+k.++l.@+3+o+p+k+q+r+S *+s+t+i.j.k.L.u+o+v+w+x+y+  ",
"  z+i.V A+B+C+L.D+d+E+9+F+0+w+G+q.H+}+0.x.J.K.L.@+E+F+I+J+K+L+  ",
"  M+z.>+,+N+O+P+Q+E+R+S+I+T+x+U+V+W+a.U W.>+++X+Y+Z+`+ @.@+@@@  ",
"  #@$@X.%@&@ .*@=@-@;@l+J+>@,@'@=+T >.,.>+)@!@~@ .{@T+]@^@/@(@  ",
"  . _@:@<@[@ .}@|@1@T+>@.@2@3@4@T [.}.|.1.5@6@}@ .7@>@8@9@0@.   ",
"  . . . . a@b@c@ .d@]@,@+@e@f@g@|+h@j.k.l.i@ . .j@k@l@m@. . .   ",
"  . . . . . . n@o@p@^@q@f@f@f@r@i.z.1+L.M.s@t@u@v@. . . . . .   ",
"  . . . . . . . . w@x@y@z@f@f@A@W.K.B@C@D@E@. . . . . . . . .   ",
"  . . . . . . . . . . . F@(@G@H@I@J@K@L@. . . . . . . . . . .   ",
"  . . . . . . . . . . . . . M@N@O@. . . . . . . . . . . . . .   ",
"  . . . . . . . . . . . . . . . . . . . . . . . . . . . . . .   ",
"  . . . . . . . . . . . . . . . . . . . . . . . . . . . . . .   ",
"  . . . . . . . . . . . . . . . . . . . . . . . . . . . . . .   ",
"                                                                "};
