/* XPM */
static char * kiwi_fruit_tile1_xpm[] = {
"32 32 7 1",
" 	c #602C35",
".	c #F7DBC6",
"+	c #265C42",
"@	c #193C3E",
"#	c #3E8948",
"$	c #FEE761",
"%	c #63C74D",
"                                ",
" .............................. ",
" .............................. ",
" .........+++++................ ",
" .......+++@@@+++.............. ",
" ......+++++++++++............. ",
" .....+++++++++++++............ ",
" ....+++++++++++++++........... ",
" ....++++++++++##+++........... ",
" ...++++++++++####+++.......... ",
" ...++++++++++####+++.......... ",
" ...+++++++++++##++++.......... ",
" ...+++++++++++++++++.......... ",
" ...+++++++++++++++++.......... ",
" ....+++++++++++++++........... ",
" ....++++++++$$$$$$$$$$$....... ",
" .....+++++$$%%%%%%%%%%%$$..... ",
" ......+++$%%%%%%%%%%%%%%%$.... ",
" .......++$%%%%%%$$$%%%%%%$.... ",
" .........$%%%%%%%%%%%%%%%$.... ",
" .........#$$%%%%%%%%%%%$$#.... ",
" .........###$$$$$$$$$$$###.... ",
" .........#################.... ",
" .........################..... ",
" ..........###############..... ",
" ...........#############...... ",
" ............###########....... ",
" ...............#####.......... ",
" .............................. ",
" .............................. ",
" .............................. ",
"                                "};
