/* XPM */
static char * super_kiwi_tile1_xpm[] = {
"32 32 27 1",
" 	c #602C35",
".	c #F7DBC6",
"+	c #2E2B27",
"@	c #C5A49B",
"#	c #CE9E9A",
"$	c #C7A59A",
"%	c #CFACA0",
"&	c #CD9B97",
"*	c #AE9982",
"=	c #C69591",
"-	c #D3A099",
";	c #D1CCC5",
">	c #5D5852",
",	c #BDB4A8",
"'	c #A0C97A",
")	c #8FB66B",
"!	c #C8BEB3",
"~	c #D95763",
"{	c #759359",
"]	c #ECD99C",
"^	c #C3B4A3",
"/	c #4D4840",
"(	c #B6A48F",
"_	c #BEAD9B",
":	c #BCAA98",
"<	c #D8CEC3",
"[	c #423D38",
"                                ",
" .............................. ",
" .............................. ",
" .............................. ",
" .............................. ",
" .............................. ",
" .............................. ",
" .............................. ",
" ...............+++....+++..... ",
" ......+.......+@#$+..+%&%+.... ",
" .....+*+......+=+-+..+&+%+.... ",
" .....+;+......++>+>++>+>++.... ",
" .....+,+......+>>>>>>>>>>+.... ",
" ....+;;+.....+>>>>>>>>>>>+.... ",
" ...+>>+......+>>>>>'>>>>'>+... ",
" ...+>+.......+>>>>>)!!!!)>+... ",
" ...+>+.......++++>>!!!~!!>+... ",
" ...+>>+.......+>>>>>!!!!>>+... ",
" ...+>>>+++++++{+++>>>>>>>+.... ",
" ...+>>>>>>>>>>{{+>>>>>>>+..... ",
" ....+>>>>>>>>>>{{+++++++...... ",
" ....+>>>>>>>>>>>{{{{{{{....... ",
" .....++>>>>>>>>>>>>]>>+....... ",
" ......+>>>>>>>>>>>>>>>+....... ",
" ......+>>>>>>>>>>>>>>>+....... ",
" ......+>>>>>>>>>>>>>>+........ ",
" ......+^>>/^(_/>_/>_:+........ ",
" ......+<<>[<<*[<<[<<<+........ ",
" ......+<<++<<++<<++<<+........ ",
" .......+++.+++.+++.++......... ",
" .............................. ",
"                                "};
