/* XPM */
static char * water_xpm[] = {
"32 32 5 1",
" 	c #20D6C7",
".	c #63E9D1",
"+	c #A6FCDB",
"@	c #22BBD2",
"#	c #FFFFFF",
"            .+  @@  @@..+       ",
"           .           @@+.     ",
"          .                .+   ",
".+..++.....                  #+.",
"   @@@@@@.                   ..@",
"         @.                 .@@ ",
"          .                .    ",
"          +#...+.        ..     ",
"         +..  @@@.++...+++      ",
"       ...           @@@@.+     ",
"      .                   .+    ",
"...++.+                    ....+",
"@@@@.+                   +..   @",
"    @@+              ++..       ",
"      .            ..@@@        ",
"       .          .             ",
"       .+.      ..              ",
"     ......++.+.                ",
" .++.  @@@@@.+@@                ",
".           @..              .+.",
"               ..          ..@@@",
"                +.       .+     ",
"               +++..+...++      ",
"              .. @@@ @@@@.+     ",
"            ..           @@..   ",
"          .+               @@.+ ",
"+....+++.++                   .+",
"@   @@@@@..+                  ++",
"         @@..                ..@",
"            ..              ..  ",
"             .+           ..    ",
"             .++....+....+      "};
